images/ico/sc_ico_like.svg

<svg xmlns="http://www.w3.org/2000/svg" width="10" height="8" viewBox="0 0 10 8">
  <defs>
    <style>
      .cls-1 {
        fill: none;
      }

      .cls-2, .cls-3 {
        stroke: none;
      }

      .cls-3 {
        fill: #fff;
      }
    </style>
  </defs>
  <g id="Icon_awesome-heart" data-name="Icon awesome-heart" class="cls-1" transform="translate(0.001 -2.248)">
    <path class="cls-2" d="M9.029,2.795a2.853,2.853,0,0,0-3.644.243L5,3.4l-.385-.362A2.853,2.853,0,0,0,.97,2.795,2.417,2.417,0,0,0,.777,6.507l3.779,3.568a.653.653,0,0,0,.885,0L9.22,6.507a2.416,2.416,0,0,0-.191-3.712Z"/>
    <path class="cls-3" d="M 2.608040809631348 3.247658729553223 C 2.337821006774902 3.247658729553223 1.94093132019043 3.30591869354248 1.585261344909668 3.583048820495605 C 1.228230476379395 3.861659049987793 1.020621299743652 4.247098922729492 1.000680923461914 4.668378829956055 C 0.9809808731079102 5.08466911315918 1.145380973815918 5.479578971862793 1.463171005249023 5.779949188232422 L 4.998311042785645 9.117304801940918 L 8.533631324768066 5.779758930206299 C 8.852351188659668 5.479039192199707 9.017130851745605 5.084259033203125 8.997620582580566 4.668138980865479 C 8.977880477905273 4.247038841247559 8.770360946655273 3.861679077148438 8.413890838623047 3.583508491516113 C 8.057621002197266 3.305929183959961 7.661080837249756 3.247658729553223 7.39116096496582 3.247658729553223 C 6.900160789489746 3.247658729553223 6.418710708618164 3.436199188232422 6.069770812988281 3.765388488769531 L 4.99928092956543 4.773919105529785 L 3.927590847015381 3.764248847961426 C 3.580270767211914 3.435949325561523 3.099320888519287 3.247658729553223 2.608040809631348 3.247658729553223 M 2.608037948608398 2.247663497924805 C 3.336133003234863 2.247663497924805 4.070019245147705 2.522838592529297 4.614521026611328 3.037528991699219 L 4.99928092956543 3.400018692016602 L 5.384040832519531 3.037528991699219 C 6.366441249847412 2.110759735107422 7.958210945129395 1.960760116577148 9.028500556945801 2.794678688049316 C 10.25504112243652 3.751798629760742 10.31949138641357 5.469628810882568 9.219901084899902 6.50710916519165 L 5.440680980682373 10.0748987197876 C 5.196541309356689 10.30524826049805 4.800061225891113 10.30524921417236 4.555931091308594 10.0748987197876 L 0.7767009735107422 6.50710916519165 C -0.3209295272827148 5.469628810882568 -0.2564792633056641 3.751798629760742 0.9700613021850586 2.794678688049316 C 1.445956230163574 2.423883438110352 2.025098323822021 2.247663497924805 2.608037948608398 2.247663497924805 Z"/>
  </g>
</svg>

<svg xmlns="http://www.w3.org/2000/svg" width="10" height="8"><g data-name="Icon awesome-heart" style="fill:none"><path d="M9.029 2.795a2.853 2.853 0 0 0-3.644.243L5 3.4l-.385-.362A2.853 2.853 0 0 0 .97 2.795a2.417 2.417 0 0 0-.193 3.712l3.779 3.568a.653.653 0 0 0 .885 0L9.22 6.507a2.416 2.416 0 0 0-.191-3.712Z" style="stroke:none" transform="translate(.001 -2.248)"/><path d="M2.608 3.248c-.27 0-.667.058-1.023.335a1.458 1.458 0 0 0-.584 1.085c-.02.417.144.812.462 1.112l3.535 3.337L8.534 5.78c.318-.301.483-.696.464-1.112a1.456 1.456 0 0 0-.584-1.084 1.654 1.654 0 0 0-1.023-.336 1.94 1.94 0 0 0-1.321.517L5 4.774l-1.072-1.01a1.936 1.936 0 0 0-1.32-.516m0-1a2.94 2.94 0 0 1 2.007.79l.384.362.385-.362c.982-.927 2.574-1.077 3.645-.243 1.226.957 1.29 2.675.19 3.712l-3.778 3.568a.653.653 0 0 1-.885 0L.776 6.507C-.32 5.47-.255 3.752.97 2.795a2.65 2.65 0 0 1 1.638-.547Z" style="fill:#fff;stroke:none" transform="translate(.001 -2.248)"/></g></svg>
